X:2461
T:Cammel's Rondeau. JMT.072
M:4/4
L:1/8
Q:180
S:J Moore,Tyneside,1841.(50b)
R:Rondeau
O:England
A:Northumberland
Z:vmp.Chris Partington
K:D
"*"G>AG2g2f2|G>AG2e2d2|Gdcd BdAd|BGEA GFED|!
G>AG2g2f2|G>AG2e2d2|BG=cA dBe=c|B2A2G4:|!
|:dafd Bgec|dafd Bgec|"*"dAeA fAgA|afed dcBA|!
d2df ecBA|d2dfe4|fdge afbg|"Da Capo"f2e2e2d2:|]
% Original key Sig Fmaj
% I have substituted a "d" for the "e" in the MS


